svg/system/share_forward_fill.svg

<?xml version="1.0" encoding="UTF-8"?>
<svg width="24px" height="24px" viewBox="0 0 24 24" version="1.1" xmlns="http://www.w3.org/2000/svg" xmlns:xlink="http://www.w3.org/1999/xlink">
    <title>share_forward_fill</title>
    <g id="页面-1" stroke="none" stroke-width="1" fill="none" fill-rule="evenodd">
        <g id="System" transform="translate(-1296.000000, -48.000000)" fill-rule="nonzero">
            <g id="share_forward_fill" transform="translate(1296.000000, 48.000000)">
                 <path d="M24,0 L24,24 L0,24 L0,0 L24,0 Z M12.5934901,23.257841 L12.5819402,23.2595131 L12.5108777,23.2950439 L12.4918791,23.2987469 L12.4918791,23.2987469 L12.4767152,23.2950439 L12.4056548,23.2595131 C12.3958229,23.2563662 12.3870493,23.2590235 12.3821421,23.2649074 L12.3780323,23.275831 L12.360941,23.7031097 L12.3658947,23.7234994 L12.3769048,23.7357139 L12.4804777,23.8096931 L12.4953491,23.8136134 L12.4953491,23.8136134 L12.5071152,23.8096931 L12.6106902,23.7357139 L12.6232938,23.7196733 L12.6232938,23.7196733 L12.6266527,23.7031097 L12.609561,23.275831 C12.6075724,23.2657013 12.6010112,23.2592993 12.5934901,23.257841 L12.5934901,23.257841 Z M12.8583906,23.1452862 L12.8445485,23.1473072 L12.6598443,23.2396597 L12.6498822,23.2499052 L12.6498822,23.2499052 L12.6471943,23.2611114 L12.6650943,23.6906389 L12.6699349,23.7034178 L12.6699349,23.7034178 L12.678386,23.7104931 L12.8793402,23.8032389 C12.8914285,23.8068999 12.9022333,23.8029875 12.9078286,23.7952264 L12.9118235,23.7811639 L12.8776777,23.1665331 C12.8752882,23.1545897 12.8674102,23.1470016 12.8583906,23.1452862 L12.8583906,23.1452862 Z M12.1430473,23.1473072 C12.1332178,23.1423925 12.1221763,23.1452606 12.1156365,23.1525954 L12.1099173,23.1665331 L12.0757714,23.7811639 C12.0751323,23.7926639 12.0828099,23.8018602 12.0926481,23.8045676 L12.108256,23.8032389 L12.3092106,23.7104931 L12.3186497,23.7024347 L12.3186497,23.7024347 L12.3225043,23.6906389 L12.340401,23.2611114 L12.337245,23.2485176 L12.337245,23.2485176 L12.3277531,23.2396597 L12.1430473,23.1473072 Z" id="MingCute" fill-rule="nonzero"></path>
                <path d="M10.1141,4.49112 L9.91063,7.63542 L9.891,8.05196 L9.8012,8.06134 C5.36297,8.583 2,12.3671 2,17 C2,17.457 2.03414,17.91 2.10168,18.3565 C2.38094,20.2022 2.59088,20.3807 3.87391,18.8547 C4.18977,18.479 4.54227,18.1439 4.91368,17.8247 C6.24977,16.7224 7.90632,16.0786 9.66842,16.0067 L9.894,16.002 L9.95549,17.2308 L10.1215,19.576 C10.2008,20.38 11.0467,20.9293 11.8253,20.4902 C12.1766,20.2919 12.52,20.0809 12.8641,19.8706 C14.652,18.7519 16.3249,17.4666 17.9553,16.1321 C18.9147,15.3326 19.7558,14.5744 20.4714,13.8844 C20.8007,13.5606 21.1304,13.2376 21.4496,12.9037 C21.9118,12.42 21.9575,11.6189 21.4737,11.1124 C20.3603,9.94706 18.7862,8.48751 16.8271,6.94049 C15.2394,5.69825 13.597,4.53773 11.8571,3.51856 C11.0203,3.04172 10.1902,3.69599 10.1141,4.49112 Z" id="路径" fill="#09244B"></path>
            </g>
        </g>
    </g>
</svg>

<svg xmlns="http://www.w3.org/2000/svg" width="24" height="24"><g fill="none" fill-rule="nonzero"><path d="M24 0v24H0V0h24ZM12.593 23.258l-.011.002-.071.035-.02.004-.014-.004-.071-.035c-.01-.004-.019-.001-.024.005l-.004.01-.017.428.005.02.01.013.104.074.015.004.012-.004.104-.074.012-.016.004-.017-.017-.427c-.002-.01-.009-.017-.017-.018Zm.265-.113-.013.002-.185.093-.01.01-.003.011.018.43.005.012.008.007.201.093c.012.004.023 0 .029-.008l.004-.014-.034-.614c-.003-.012-.01-.02-.02-.022Zm-.715.002a.023.023 0 0 0-.027.006l-.006.014-.034.614c0 .012.007.02.017.024l.015-.002.201-.093.01-.008.004-.011.017-.43-.003-.012-.01-.01-.184-.092Z"/><path fill="#09244B" d="m10.114 4.491-.203 3.144-.02.417-.09.01C5.363 8.582 2 12.366 2 17c0 .457.034.91.102 1.357.279 1.845.489 2.024 1.772.498.316-.376.668-.711 1.04-1.03a7.958 7.958 0 0 1 4.754-1.818l.226-.005.061 1.229.166 2.345c.08.804.926 1.353 1.704.914.352-.198.695-.41 1.04-.62 1.787-1.118 3.46-2.403 5.09-3.738.96-.8 1.8-1.558 2.516-2.248.33-.323.66-.646.979-.98.462-.484.508-1.285.024-1.792-1.114-1.165-2.688-2.624-4.647-4.172-1.588-1.242-3.23-2.402-4.97-3.421-.837-.477-1.667.177-1.743.972Z"/></g></svg>
